Origami/64x64/apps/system-shutdown.svg

<svg width="64" height="64" version="1" xmlns="http://www.w3.org/2000/svg">
 <path d="M 59.958,31.828 A 28,28 0 0 1 32,59 28,28 0 0 1 4.044,32.172 28,28 0 0 0 4,33 28,28 0 0 0 32,61 28,28 0 0 0 60,33 28,28 0 0 0 59.958,31.828 Z" style="opacity:.2"/>
 <circle cx="32" cy="32" r="28" style="fill:#c2352a"/>
 <path d="m32 15a18 18 0 0 0 -18 18 18 18 0 0 0 18 18 18 18 0 0 0 18 -18 18 18 0 0 0 -18 -18zm0 4a14 14 0 0 1 14 14 14 14 0 0 1 -14 14 14 14 0 0 1 -14 -14 14 14 0 0 1 14 -14zm0 6c-1.108 0-2 0.892-2 2v12c0 1.108 0.892 2 2 2s2-0.892 2-2v-12c0-1.108-0.892-2-2-2z" style="opacity:.2"/>
 <path d="m32 14a18 18 0 0 0 -18 18 18 18 0 0 0 18 18 18 18 0 0 0 18 -18 18 18 0 0 0 -18 -18zm0 4a14 14 0 0 1 14 14 14 14 0 0 1 -14 14 14 14 0 0 1 -14 -14 14 14 0 0 1 14 -14zm0 6c-1.108 0-2 0.892-2 2v12c0 1.108 0.892 2 2 2s2-0.892 2-2v-12c0-1.108-0.892-2-2-2z" style="fill:#ffffff"/>
 <path d="M 31.998047 4 A 28 28 0 0 0 4 32 A 28 28 0 0 0 4.0175781 32.492188 A 28 28 0 0 1 31.998047 5 L 32 5 A 28 28 0 0 1 59.972656 32.5 A 28 28 0 0 0 59.998047 32 A 28 28 0 0 0 32 4 L 31.998047 4 z" style="fill:#ffffff;opacity:.2"/>
</svg>

<svg xmlns="http://www.w3.org/2000/svg" width="64" height="64" version="1">
 <path style="opacity:0.2" d="M 59.958,31.828 A 28,28 0 0 1 32,59 28,28 0 0 1 4.044,32.172 28,28 0 0 0 4,33 28,28 0 0 0 32,61 28,28 0 0 0 60,33 28,28 0 0 0 59.958,31.828 Z"/>
 <circle style="fill:#c2352a" cx="32" cy="32" r="28"/>
 <path style="opacity:0.2" d="M 32,15 A 18,18 0 0 0 14,33 18,18 0 0 0 32,51 18,18 0 0 0 50,33 18,18 0 0 0 32,15 Z m 0,4 A 14,14 0 0 1 46,33 14,14 0 0 1 32,47 14,14 0 0 1 18,33 14,14 0 0 1 32,19 Z m 0,6 c -1.108,0 -2,0.892 -2,2 l 0,12 c 0,1.108 0.892,2 2,2 1.108,0 2,-0.892 2,-2 l 0,-12 c 0,-1.108 -0.892,-2 -2,-2 z"/>
 <path style="fill:#ffffff" d="M 32,14 A 18,18 0 0 0 14,32 18,18 0 0 0 32,50 18,18 0 0 0 50,32 18,18 0 0 0 32,14 Z m 0,4 A 14,14 0 0 1 46,32 14,14 0 0 1 32,46 14,14 0 0 1 18,32 14,14 0 0 1 32,18 Z m 0,6 c -1.108,0 -2,0.892 -2,2 l 0,12 c 0,1.108 0.892,2 2,2 1.108,0 2,-0.892 2,-2 l 0,-12 c 0,-1.108 -0.892,-2 -2,-2 z"/>
 <path style="opacity:0.2;fill:#ffffff" d="M 31.998047 4 A 28 28 0 0 0 4 32 A 28 28 0 0 0 4.0175781 32.492188 A 28 28 0 0 1 31.998047 5 L 32 5 A 28 28 0 0 1 59.972656 32.5 A 28 28 0 0 0 59.998047 32 A 28 28 0 0 0 32 4 L 31.998047 4 z"/>
</svg>
